X: 7
T: Barney Brannigan
R: slip jig
M: 9/8
L: 1/8
K: Dmaj
|: F2 A ABA ABA | F2 A ABA d2 f | F2 A ABA ABA | B2 B e2 d cBA :|
|: f2 a f2 a fed | f2 a f2 a gfe | f2 a f2 a f2 d | g2 f e2 d cBA :|
|: f3 a3 d3 | g2 f e2 d cBA | f3 e3 d3 | A2 A A2 G FED :|


Tune 1429	Setting 26045

